!!!OTL: Jodler
!!!ARE: Europa, Mitteleuropa, Schweiz, Kt. Wallis, Brigersberg
!!!SCT: D0090
!!!YEM: Copyright 1995, estate of Helmut Schaffrath.
**kern
*ICvox
*Ivox
*M3/4
*k[f#]
*G:
{8d
8e
8f#
=1
4g
4dd
4b
=2
4.gg
8ee
8dd
8b
=3
4g
4f#
4dd
=4
4.cc}
{8d
8e
8f#
=5
8a
8dd
8cc
8ee
8dd
16f#
16dd
=6
4g
4ee
4dd
=7
2.b}
==
!!!AGN: Jodler
!! erste Zeile rhythmisch korrigiert
!!    Notentext vollstaendig ??  Sonderzeichen in der Notation
!!!ONB: ESAC (Essen Associative Code) Database: DVA
!!!AMT: simple triple
!!!AIN: vox
!!!EED: Helmut Schaffrath
!!!EEV: 1.0
*-
